!!!OTL: 710. Der falsche Baron.
!!!ARE: Europa, Mitteleuropa, Deutschland, Rheiland, Siebengebirge
!!!SCT: E0710
!!!TXL: @@DE
!!!YEM: Copyright 1995, estate of Helmut Schaffrath.
**kern	**text
*ICvox	*
*M6/8	*
*k[b-e-]	*
*B-:	*
!LO:TX:a:t=Etwas schnell.	!
!LO:TX:a:t=Aus dem Siebengebirge.	!
{(8fL	O
8dJ)	.
8f	Ba-
=1	=1
4g	-ron,
8b-	du
8aL	fal-
8gJ	.
8f	-ſches
=2	=2
(4b-	Kind,
8dd)}	.
{8fL	packe
8dJ	.
8f	dich
=3	=3
4g	fort
8b-	und
4a	lauf
8f	ge-
=4	=4
4b-	-ſchwind!
8r}	.
{(8fL	O
8dJ)	.
8f	Ba-
=5	=5
4g	-ron,
8b-	du
8aL	fal-
8gJ	.
8f	-ſches
=6	=6
(4b-	Kind,
8dd)}	.
{8fL	packe
8dJ	.
8f	dich
=7	=7
4g	fort
8b-	und
4a	lauf
8f	ge-
=8	=8
4b-	-ſchwind!
8r}	.
{4dd	Fort
8ff	aus
=9	=9
(8ee-L	mei-
8ddJ)	.
8cc	-nem
(8b-L	An-
8aJ)	.
8g	-ge-
=10	=10
4f}	-ſicht,
{8f	ich
4g	hab
8g	mit
=11	=11
8ee-L	dir
8ddJ	.
8cc	ʒu
4b-	ſchaf-
8a	-fen
=12	=12
4b-	nicht!
8r}	.
{4dd	Fort
8ff	aus
=13	=13
(8ee-L	mei-
8ddJ)	.
8cc	-nem
(8b-L	An-
8aJ)	.
8g	-ge-
=14	=14
4f}	-ſicht,
{8f	ich
4g	hab
8g	mit
=15	=15
8ee-L	dir
8ddJ	.
8cc	ʒu
4b-	ſchaf-
8a	-fen
=16	=16
4b-	nicht!
8r}	.
==	==
!!!AGN: Liebes - Lied, Leid, Klage
!!!ONB: ESAC (Essen Associative Code) Database: ERK2
!!!AMT: compound duple
!!!AIN: vox
!!!EED: Helmut Schaffrath
!!!EEV: 1.0
!!!GTL: Liebeslieder [Neuere (aus dem 18. bis 19. Jahrh.) - Liebesleid] 678-740
!!!URL-scan: https://rosdok.uni-rostock.de/mcrviewer/recordIdentifier/rosdok_ppn745177662/iview2/phys_0517.iview2?x=118.50237302803725&y=1443.6947750472464&scale=0.7029437510502773&rotation=0&layout=singlePageLayout
!!!ENC: Anna Maria Matuszewska
!!!EEV: 2024/12/16
*-	*-
